X: 32149
T: Peter Ostroushko's
R: jig
M: 6/8
K: Amajor
|:e|"A"aec Ace|"D"def "A"ecA|"E"EGB "A"Ace|"B"B^df"E"e2^e|
"D"~f3fga|"A"edc "E"BAB|"A"~c3"E"BAB|"A"cAAA2:|
|:E|"E7"EGB dcB|"A"Ace fec|"F#m"~f3~c3|"D"~f3fga|
"E7"EGB dcB|"A"Ace fec|"D"~f3fga|1 "E"ecB"A"A2:|2 "E"ecB "A"Ac||

